svg/fluentui-system-icons/ic_fluent_pause_48_regular.svg

<svg width="48" height="48" viewBox="0 0 48 48" fill="none" xmlns="http://www.w3.org/2000/svg">
<path d="M11.75 6C9.67893 6 8 7.67893 8 9.75V38.25C8 40.3211 9.67893 42 11.75 42H18.25C20.3211 42 22 40.3211 22 38.25V9.75C22 7.67893 20.3211 6 18.25 6H11.75ZM10.5 9.75C10.5 9.05964 11.0596 8.5 11.75 8.5H18.25C18.9404 8.5 19.5 9.05964 19.5 9.75V38.25C19.5 38.9404 18.9404 39.5 18.25 39.5H11.75C11.0596 39.5 10.5 38.9404 10.5 38.25V9.75ZM29.75 6C27.6789 6 26 7.67893 26 9.75V38.25C26 40.3211 27.6789 42 29.75 42H36.25C38.3211 42 40 40.3211 40 38.25V9.75C40 7.67893 38.3211 6 36.25 6H29.75ZM28.5 9.75C28.5 9.05964 29.0596 8.5 29.75 8.5H36.25C36.9404 8.5 37.5 9.05964 37.5 9.75V38.25C37.5 38.9404 36.9404 39.5 36.25 39.5H29.75C29.0596 39.5 28.5 38.9404 28.5 38.25V9.75Z" fill="#212121"/>
</svg>

<svg xmlns="http://www.w3.org/2000/svg" width="48" height="48"><path d="M11.75 6A3.75 3.75 0 0 0 8 9.75v28.5A3.75 3.75 0 0 0 11.75 42h6.5A3.75 3.75 0 0 0 22 38.25V9.75A3.75 3.75 0 0 0 18.25 6h-6.5ZM10.5 9.75c0-.69.56-1.25 1.25-1.25h6.5c.69 0 1.25.56 1.25 1.25v28.5c0 .69-.56 1.25-1.25 1.25h-6.5c-.69 0-1.25-.56-1.25-1.25V9.75ZM29.75 6A3.75 3.75 0 0 0 26 9.75v28.5A3.75 3.75 0 0 0 29.75 42h6.5A3.75 3.75 0 0 0 40 38.25V9.75A3.75 3.75 0 0 0 36.25 6h-6.5ZM28.5 9.75c0-.69.56-1.25 1.25-1.25h6.5c.69 0 1.25.56 1.25 1.25v28.5c0 .69-.56 1.25-1.25 1.25h-6.5c-.69 0-1.25-.56-1.25-1.25V9.75Z"/></svg>
